X:1
T:Title
%%score { ( 1 4 ) | ( 2 3 ) }
L:1/8
M:4/4
K:G
V:1 treble nm="Grand Piano"
V:4 treble 
V:2 bass 
V:3 bass 
V:1
 z4 z2[Q:1/4=106] D>D | G2 G>G G2 F>E | D6 G>A | B2 B>B cBAG |[M:3/4] [FA]6 |[M:1/4] B>A | %6
[M:4/4] G2 G>G G2 AB | [Ec]6 [Ec]>[Ge] | [Gd]2 [Fc][GB] [FA]2 [FB]>[FA] |[M:3/4] [B,G]6 | %10
[M:1/4] D>D |[M:4/4] G2 G>G G2 FG | A2- [FA-][FA-] [FA]2 G>A | B2 B>B cB[CGA][B,G] | A6 z2 | %15
 G2 G>G G2 AB | c6 z2 | [Gd]2 [Fc][GB] [FA]2 [FB]>[FA] |[M:3/4] G6 |] %19
V:2
 z4 z2 [G,B,]>[G,B,] | [G,B,D]2 [G,B,D]>[G,B,D] [G,B,D]2 [G,D]>[G,C] | %2
 [G,B,]6 [G,B,]>[K:treble][G,CG] | [G,DG]2 [G,DG]>[G,DG] ED[G,CG][K:bass][G,B,] |[M:3/4] [D,D]6 | %5
[M:1/4] [D,D]>[D,CD] |[M:4/4] [G,B,D]2 [G,B,D]>[G,B,D] [G,B,D]2 [F,A,D][G,D] | %7
 [C,G,]6 [C,G,]>[C,C] | [D,B,]2 [D,A,][D,G,] [D,D]2 [D,D]>[D,C] |[M:3/4] [G,,G,]6 | %10
[M:1/4] [G,B,]>[G,B,] |[M:4/4] [G,B,D]2 [G,B,D]>[G,B,D] [G,B,D]2 [A,CD][G,B,D] | %12
 z2[K:treble] DD D2 [G,B,]>[G,CG] | [G,DG]2 [G,DG]>[G,DG] ED[K:bass]G,G, | z2 (3DDD D2 D,>D, | %15
 [G,B,]2 [G,B,D]>[G,B,D] [G,B,D]2 [F,A,D][G,D] | G,2 G,G, G,2 [C,G,]>[C,C] | %17
 [D,B,]2 [D,A,][D,G,] [D,D]2 [D,D]>[D,C] |[M:3/4][K:treble] B,2 (3CCC B,2 |] %19
V:3
 x8 | x8 | x15/2[K:treble] x/ | z4 [G,G]2 z2[K:bass] |[M:3/4] x6 |[M:1/4] x2 |[M:4/4] x8 | x8 | %8
 x8 |[M:3/4] x6 |[M:1/4] x2 |[M:4/4] x8 | D,6[K:treble] z2 | z4 [G,G]2[K:bass] z2 | D,6 z2 | x8 | %16
 C,6 z2 | x8 |[M:3/4][K:treble] G,6 |] %19
V:4
 x8 | x8 | x8 | x8 |[M:3/4] x6 |[M:1/4] x2 |[M:4/4] x8 | x8 | x8 |[M:3/4] x6 |[M:1/4] x2 | %11
[M:4/4] x8 | [DF]2 z2 z4 | x8 | [DF]2 (3FFF F2 [DFB]>[CFA] | x8 | E2 EE E2 [Ec]>[Ge] | x8 | %18
[M:3/4] z2 (3EEE D2 |] %19

